{ "compressionlevel":-1,
 "height":8,
 "infinite":false,
 "layers":[
        {
         "data":[294, 294, 294, 294, 294, 294, 294, 294, 294, 294,
            294, 294, 294, 294, 294, 294, 294, 294, 294, 294,
            294, 294, 294, 294, 294, 294, 294, 294, 294, 294,
            294, 294, 294, 294, 294, 294, 294, 294, 294, 294,
            294, 294, 294, 294, 294, 294, 294, 294, 294, 294,
            294, 294, 294, 294, 294, 294, 294, 294, 294, 294,
            294, 294, 294, 294, 294, 294, 294, 294, 294, 294,
            294, 294, 294, 294, 294, 294, 294, 294, 294, 294],
         "height":8,
         "id":1,
         "locked":true,
         "name":"background",
         "opacity":1,
         "type":"tilelayer",
         "visible":true,
         "width":10,
         "x":0,
         "y":0
        }, 
        {
         "data":[0, 845, 0, 0, 1474, 1474, 0, 0, 0, 0,
            0, 0, 0, 0, 1474, 1474, 0, 0, 0, 845,
            0, 0, 0, 0, 1474, 1474, 0, 0, 0, 0,
            0, 0, 0, 0, 1474, 1474, 0, 0, 0, 0,
            0, 0, 0, 0, 1474, 1474, 0, 0, 0, 0,
            0, 0, 0, 779, 1474, 1474, 779, 0, 0, 0,
            0, 0, 0, 0, 1474, 1474, 0, 0, 0, 0,
            0, 0, 0, 0, 1474, 1474, 0, 0, 0, 0],
         "height":8,
         "id":2,
         "name":"blocked",
         "opacity":1,
         "type":"tilelayer",
         "visible":true,
         "width":10,
         "x":0,
         "y":0
        }, 
        {
         "draworder":"topdown",
         "id":3,
         "name":"Object Layer 1",
         "objects":[
                {
                 "gid":86,
                 "height":32,
                 "id":1,
                 "name":"",
                 "rotation":0,
                 "type":"",
                 "visible":true,
                 "width":32,
                 "x":34.3017543859649,
                 "y":93.2491228070175
                }, 
                {
                 "gid":86,
                 "height":32,
                 "id":3,
                 "name":"",
                 "properties":[
                        {
                         "name":"name",
                         "type":"string",
                         "value":"chest"
                        }],
                 "rotation":0,
                 "type":"",
                 "visible":true,
                 "width":32,
                 "x":236.40701754386,
                 "y":88.7578947368421
                }],
         "opacity":1,
         "type":"objectgroup",
         "visible":true,
         "x":0,
         "y":0
        }],
 "nextlayerid":4,
 "nextobjectid":4,
 "orientation":"orthogonal",
 "renderorder":"right-down",
 "tiledversion":"1.11.2",
 "tileheight":32,
 "tilesets":[
        {
         "columns":32,
         "firstgid":1,
         "image":"background.png",
         "imageheight":1504,
         "imagewidth":1024,
         "margin":0,
         "name":"background",
         "spacing":0,
         "tilecount":1504,
         "tileheight":32,
         "tilewidth":32
        }],
 "tilewidth":32,
 "type":"map",
 "version":"1.10",
 "width":10
}